; generated by PrusaSlicer 2.4.2 on 2022-07-11 at 18:24:59 UTC

; 

; external perimeters extrusion width = 0.45mm
; perimeters extrusion width = 0.45mm
; infill extrusion width = 0.45mm
; solid infill extrusion width = 0.45mm
; top infill extrusion width = 0.40mm
; first layer extrusion width = 0.42mm

M107
;TYPE:Custom
G90 ; use absolute coordinates
M83 ; extruder relative mode
M140 S60 ; set final bed temp
M104 S150 ; set temporary nozzle temp to prevent oozing during homing
G4 S10 ; allow partial nozzle warmup
G28 ; home all axis
G1 Z50 F240
G1 X2 Y10 F3000
M104 S205 ; set final nozzle temp
M190 S60 ; wait for bed temp to stabilize
M109 S205 ; wait for nozzle temp to stabilize
G1 Z0.28 F240
G92 E0
G1 Y140 E10 F1500 ; prime the nozzle
G1 X2.3 F5000
G92 E0
G1 Y10 E10 F1200 ; prime the nozzle
G92 E0
G21 ; set units to millimeters
G90 ; use absolute coordinates
M83 ; use relative distances for extrusion
; Filament gcode
M107
;LAYER_CHANGE
;Z:0.2
;HEIGHT:0.2
;BEFORE_LAYER_CHANGE
G92 E0
;0.2


G1 E-5 F3600
G1 Z.2 F9000
;AFTER_LAYER_CHANGE
;0.2
G1 X88.873 Y106.919
G1 E5 F2400
M204 S500
;TYPE:Skirt/Brim
;WIDTH:0.42
G1 F1200
G1 X90.766 Y106.338 E.06207
G1 X140.766 Y106.338 E1.56771
G1 X142.349 Y106.732 E.05115
G1 X143.563 Y107.823 E.05115
G1 X144.143 Y109.715 E.06207
G1 X144.143 Y135.715 E.81521
G1 X143.749 Y137.299 E.05115
G1 X142.659 Y138.512 E.05115
G1 X140.766 Y139.092 E.06207
G1 X90.766 Y139.092 E1.56771
G1 X89.183 Y138.698 E.05115
G1 X87.969 Y137.608 E.05115
G1 X87.389 Y135.715 E.06207
G1 X87.389 Y109.715 E.81521
G1 X87.783 Y108.132 E.05115
G1 X88.833 Y106.963 E.04927
G1 E-3.5 F3600
;WIPE_START
G1 F7200
G1 X90.766 Y106.338 E-.96489
G1 X91.735 Y106.338 E-.46011
;WIPE_END
G1 E-.075 F3600
G1 X114.728 Y121.461 F9000
G1 E5 F2400
;TYPE:Perimeter
G1 F1200
G1 X115.126 Y120.864 E.0225
G1 X115.63 Y120.417 E.0211
G1 X116.226 Y120.105 E.0211
G1 X116.88 Y119.944 E.0211
G1 X117.553 Y119.944 E.0211
G1 X118.206 Y120.105 E.0211
G1 X118.802 Y120.417 E.0211
G1 X119.306 Y120.864 E.0211
G1 X119.689 Y121.418 E.0211
G1 X119.927 Y122.047 E.0211
G1 X120.008 Y122.715 E.0211
G1 X119.927 Y123.384 E.0211
G1 X119.689 Y124.013 E.0211
G1 X119.306 Y124.567 E.0211
G1 X118.802 Y125.013 E.0211
G1 X118.206 Y125.326 E.0211
G1 X117.553 Y125.487 E.0211
G1 X116.88 Y125.487 E.0211
G1 X116.226 Y125.326 E.0211
G1 X115.63 Y125.013 E.0211
G1 X115.126 Y124.567 E.0211
G1 X114.744 Y124.013 E.0211
G1 X114.505 Y123.384 E.0211
G1 X114.424 Y122.715 E.0211
G1 X114.505 Y122.047 E.0211
G1 X114.706 Y121.517 E.01779
G1 X115.08 Y121.594 F9000
;TYPE:External perimeter
G1 F1200
G1 X115.411 Y121.116 E.01823
G1 X115.846 Y120.73 E.01823
G1 X116.361 Y120.46 E.01823
G1 X116.925 Y120.321 E.01823
G1 X117.507 Y120.321 E.01823
G1 X118.072 Y120.46 E.01823
G1 X118.587 Y120.73 E.01823
G1 X119.022 Y121.116 E.01823
G1 X119.352 Y121.594 E.01823
G1 X119.558 Y122.138 E.01823
G1 X119.629 Y122.715 E.01823
G1 X119.558 Y123.293 E.01823
G1 X119.352 Y123.836 E.01823
G1 X119.022 Y124.315 E.01823
G1 X118.587 Y124.701 E.01823
G1 X118.072 Y124.971 E.01823
G1 X117.507 Y125.11 E.01823
G1 X116.925 Y125.11 E.01823
G1 X116.361 Y124.971 E.01823
G1 X115.846 Y124.701 E.01823
G1 X115.411 Y124.315 E.01823
G1 X115.08 Y123.836 E.01823
G1 X114.874 Y123.293 E.01823
G1 X114.804 Y122.715 E.01823
G1 X114.874 Y122.138 E.01823
G1 X115.059 Y121.65 E.01635
G1 X114.866 Y121.256 F9000
G1 E-3.5 F3600
;WIPE_START
G1 F7200
G1 X115.411 Y121.116 E-.30398
G1 X115.846 Y120.73 E-.27623
G1 X116.361 Y120.46 E-.27623
G1 X116.925 Y120.321 E-.27623
G1 X117.507 Y120.321 E-.27623
G1 X117.54 Y120.329 E-.0161
;WIPE_END
G1 E-.075 F3600
G1 X109.541 Y121.832 F9000
G1 E5 F2400
;TYPE:Perimeter
G1 F1200
G1 X109.648 Y122.715 E.02791
G1 X109.541 Y123.599 E.02791
G1 X109.225 Y124.431 E.02791
G1 X108.72 Y125.164 E.02791
G1 X108.054 Y125.754 E.02791
G1 X107.265 Y126.168 E.02791
G1 X106.401 Y126.381 E.02791
G1 X105.511 Y126.381 E.02791
G1 X104.643 Y126.167 E.02804
G1 X103.819 Y125.719 E.02938
G1 X103.193 Y125.164 E.02626
G1 X102.687 Y124.431 E.02791
G1 X102.371 Y123.599 E.02791
G1 X102.264 Y122.715 E.02791
G1 X102.371 Y121.832 E.02791
G1 X102.668 Y121.049 E.02626
G1 X103.189 Y120.27 E.02938
G1 X103.859 Y119.677 E.02804
G1 X104.647 Y119.263 E.02791
G1 X105.515 Y119.049 E.02804
G1 X106.452 Y119.063 E.02938
G1 X107.265 Y119.263 E.02626
G1 X108.054 Y119.677 E.02791
G1 X108.72 Y120.267 E.02791
G1 X109.225 Y121 E.02791
G1 X109.52 Y121.776 E.02603
G1 X109.172 Y121.923 F9000
;TYPE:External perimeter
G1 F1200
G1 X109.269 Y122.715 E.02504
G1 X109.172 Y123.508 E.02504
G1 X108.889 Y124.255 E.02504
G1 X108.436 Y124.912 E.02504
G1 X107.838 Y125.441 E.02504
G1 X107.131 Y125.812 E.02504
G1 X106.355 Y126.003 E.02504
G1 X105.557 Y126.003 E.02504
G1 X104.78 Y125.812 E.02509
G1 X104.037 Y125.408 E.02651
G1 X103.477 Y124.912 E.02347
G1 X103.023 Y124.255 E.02504
G1 X102.74 Y123.508 E.02504
G1 X102.644 Y122.715 E.02504
G1 X102.74 Y121.923 E.02504
G1 X103.006 Y121.223 E.02347
G1 X103.476 Y120.52 E.02651
G1 X104.075 Y119.989 E.02509
G1 X104.782 Y119.618 E.02504
G1 X105.558 Y119.427 E.02509
G1 X106.404 Y119.439 E.02651
G1 X107.131 Y119.618 E.02347
G1 X107.838 Y119.989 E.02504
G1 X108.436 Y120.519 E.02504
G1 X108.889 Y121.176 E.02504
G1 X109.151 Y121.867 E.02316
G1 X109.556 Y122.034 F9000
G1 E-3.5 F3600
;WIPE_START
G1 F7200
G1 X109.269 Y122.715 E-.40702
G1 X109.172 Y123.508 E-.37929
G1 X108.889 Y124.255 E-.37929
G1 X108.579 Y124.704 E-.25941
;WIPE_END
G1 E-.075 F3600
G1 X91.453 Y110.402 F9000
G1 E5 F2400
;TYPE:Perimeter
G1 F1200
G1 X140.079 Y110.402 E1.52463
G1 X140.079 Y135.028 E.77213
G1 X91.453 Y135.028 E1.52463
G1 X91.453 Y110.462 E.77024
G1 X91.076 Y110.025 F9000
;TYPE:External perimeter
G1 F1200
G1 X140.456 Y110.025 E1.54828
G1 X140.456 Y135.405 E.79577
G1 X91.076 Y135.405 E1.54828
G1 X91.076 Y110.085 E.79389
G1 X91.471 Y110.088 F9000
G1 E-3.5 F3600
;WIPE_START
G1 F7200
G1 X94.076 Y110.082 E-1.425
;WIPE_END
G1 E-.075 F3600
G1 X139.2 Y110.516 F9000
G1 E5 F2400
;TYPE:Solid infill
;WIDTH:0.421818
G1 F1200
G1 X139.796 Y111.112 E.02657
G1 X139.796 Y111.648 E.01688
G1 X138.834 Y110.685 E.04289
G1 X138.298 Y110.685 E.01688
G1 X139.796 Y112.184 E.06676
G1 X139.796 Y112.72 E.01688
G1 X137.762 Y110.685 E.09064
G1 X137.226 Y110.685 E.01688
G1 X139.796 Y113.255 E.11451
G1 X139.796 Y113.791 E.01688
G1 X136.69 Y110.685 E.13839
G1 X136.155 Y110.685 E.01688
G1 X139.796 Y114.327 E.16226
G1 X139.796 Y114.863 E.01688
G1 X135.619 Y110.685 E.18614
G1 X135.083 Y110.685 E.01688
G1 X139.796 Y115.399 E.21001
G1 X139.796 Y115.935 E.01688
G1 X134.547 Y110.685 E.23389
G1 X134.011 Y110.685 E.01688
G1 X139.796 Y116.47 E.25776
G1 X139.796 Y117.006 E.01688
G1 X133.475 Y110.685 E.28164
G1 X132.939 Y110.685 E.01688
G1 X139.796 Y117.542 E.30551
G1 X139.796 Y118.078 E.01688
G1 X132.404 Y110.685 E.32939
G1 X131.868 Y110.685 E.01688
G1 X139.796 Y118.614 E.35326
G1 X139.796 Y119.15 E.01688
G1 X131.332 Y110.685 E.37714
G1 X130.796 Y110.685 E.01688
G1 X139.796 Y119.685 E.40101
G1 X139.796 Y120.221 E.01688
G1 X130.26 Y110.685 E.42488
G1 X129.724 Y110.685 E.01688
G1 X139.796 Y120.757 E.44876
G1 X139.796 Y121.293 E.01688
G1 X129.189 Y110.685 E.47263
G1 X128.653 Y110.685 E.01688
G1 X139.796 Y121.829 E.49651
G1 X139.796 Y122.365 E.01688
G1 X128.117 Y110.685 E.52038
G1 X127.581 Y110.685 E.01688
G1 X139.796 Y122.901 E.54426
G1 X139.796 Y123.436 E.01688
G1 X127.045 Y110.685 E.56813
G1 X126.509 Y110.685 E.01688
G1 X139.796 Y123.972 E.59201
G1 X139.796 Y124.508 E.01688
G1 X125.974 Y110.685 E.61588
G1 X125.438 Y110.685 E.01688
G1 X139.796 Y125.044 E.63976
G1 X139.796 Y125.58 E.01688
G1 X124.902 Y110.685 E.66363
G1 X124.366 Y110.685 E.01688
G1 X139.796 Y126.116 E.68751
G1 X139.796 Y126.651 E.01688
G1 X123.83 Y110.685 E.71138
G1 X123.294 Y110.685 E.01688
G1 X139.796 Y127.187 E.73526
G1 X139.796 Y127.723 E.01688
G1 X122.758 Y110.685 E.75913
G1 X122.223 Y110.685 E.01688
G1 X139.796 Y128.259 E.78301
G1 X139.796 Y128.795 E.01688
G1 X121.687 Y110.685 E.80688
G1 X121.151 Y110.685 E.01688
G1 X139.796 Y129.331 E.83076
G1 X139.796 Y129.866 E.01688
G1 X120.615 Y110.685 E.85463
G1 X120.079 Y110.685 E.01688
G1 X139.796 Y130.402 E.87851
G1 X139.796 Y130.938 E.01688
G1 X119.543 Y110.685 E.90238
G1 X119.008 Y110.685 E.01688
G1 X139.796 Y131.474 E.92625
G1 X139.796 Y132.01 E.01688
G1 X118.472 Y110.685 E.95013
G1 X117.936 Y110.685 E.01688
G1 X139.796 Y132.546 E.974
G1 X139.796 Y133.082 E.01688
G1 X117.4 Y110.685 E.99788
G1 X116.864 Y110.685 E.01688
G1 X139.796 Y133.617 E1.02175
G1 X139.796 Y134.153 E.01688
G1 X116.328 Y110.685 E1.04563
G1 X115.793 Y110.685 E.01688
G1 X139.796 Y134.689 E1.0695
G1 X139.796 Y134.745 E.00178
G1 X139.317 Y134.745 E.0151
G1 X115.257 Y110.685 E1.07202
G1 X114.721 Y110.685 E.01688
G1 X138.781 Y134.745 E1.07202
G1 X138.245 Y134.745 E.01688
G1 X114.185 Y110.685 E1.07202
G1 X113.649 Y110.685 E.01688
G1 X137.709 Y134.745 E1.07202
G1 X137.174 Y134.745 E.01688
G1 X113.113 Y110.685 E1.07202
G1 X112.577 Y110.685 E.01688
G1 X136.638 Y134.745 E1.07202
G1 X136.102 Y134.745 E.01688
G1 X112.042 Y110.685 E1.07202
G1 X111.506 Y110.685 E.01688
G1 X135.566 Y134.745 E1.07202
G1 X135.03 Y134.745 E.01688
G1 X110.97 Y110.685 E1.07202
G1 X110.434 Y110.685 E.01688
G1 X134.494 Y134.745 E1.07202
G1 X133.959 Y134.745 E.01688
G1 X109.898 Y110.685 E1.07202
G1 X109.362 Y110.685 E.01688
G1 X133.423 Y134.745 E1.07202
G1 X132.887 Y134.745 E.01688
G1 X120.215 Y122.074 E.56458
G1 X120.289 Y122.684 E.01936
G1 X132.351 Y134.745 E.53741
G1 X131.815 Y134.745 E.01688
G1 X120.238 Y123.169 E.51582
G1 X120.204 Y123.452 E.00899
G1 X120.144 Y123.61 E.00533
G1 X131.279 Y134.745 E.49615
G1 X130.743 Y134.745 E.01688
G1 X119.996 Y123.999 E.47884
G1 X119.941 Y124.145 E.00495
G1 X119.805 Y124.343 E.00755
G1 X130.208 Y134.745 E.46351
G1 X129.672 Y134.745 E.01688
G1 X119.586 Y124.66 E.44938
G1 X119.519 Y124.756 E.00368
G1 X119.322 Y124.931 E.00833
G1 X129.136 Y134.745 E.43729
G1 X128.6 Y134.745 E.01688
G1 X119.037 Y125.183 E.42607
G1 X118.964 Y125.248 E.00308
G1 X118.703 Y125.385 E.00928
G1 X128.064 Y134.745 E.41708
G1 X127.528 Y134.745 E.01688
G1 X118.352 Y125.569 E.40886
G1 X117.932 Y125.685 E.01372
G1 X126.993 Y134.745 E.4037
G1 X126.457 Y134.745 E.01688
G1 X117.481 Y125.77 E.39991
G1 X116.945 Y125.77 E.01688
G1 X126.091 Y134.915 E.40747
G1 E-3.5 F3600
;WIPE_START
G1 F7200
G1 X123.969 Y132.794 E-1.425
;WIPE_END
G1 E-.075 F3600
G1 X118.104 Y119.963 F9000
G1 E5 F2400
G1 F1200
G1 X108.827 Y110.685 E.41338
G1 X108.291 Y110.685 E.01688
G1 X117.266 Y119.661 E.39991
G1 X116.845 Y119.661 E.01326
G1 X116.753 Y119.684 E.00299
G1 X107.755 Y110.685 E.40092
G1 X107.219 Y110.685 E.01688
G1 X116.323 Y119.789 E.40564
G1 X116.125 Y119.838 E.00643
G1 X115.936 Y119.938 E.00674
G1 X106.683 Y110.685 E.41225
G1 X106.147 Y110.685 E.01688
G1 X115.584 Y120.122 E.42047
G1 X115.468 Y120.183 E.00413
G1 X115.278 Y120.352 E.00801
G1 X105.612 Y110.685 E.43069
G1 X105.076 Y110.685 E.01688
G1 X114.994 Y120.603 E.44191
G1 X114.913 Y120.675 E.0034
G1 X114.756 Y120.902 E.00869
G1 X104.54 Y110.685 E.45521
G1 X104.004 Y110.685 E.01688
G1 X114.538 Y121.219 E.46933
G1 X114.492 Y121.285 E.00255
G1 X114.375 Y121.592 E.01034
G1 X103.468 Y110.685 E.48597
G1 X102.932 Y110.685 E.01688
G1 X114.228 Y121.981 E.5033
G1 X114.17 Y122.459 E.01516
G1 X102.396 Y110.685 E.52459
G1 X101.861 Y110.685 E.01688
G1 X114.368 Y123.193 E.55728
G1 E-3.5 F3600
;WIPE_START
G1 F7200
G1 X112.247 Y121.071 E-1.425
;WIPE_END
G1 E-.075 F3600
G1 X125.555 Y134.915 F9000
G1 E5 F2400
G1 F1200
G1 X116.267 Y125.627 E.41382
G1 X116.125 Y125.592 E.0046
G1 X115.468 Y125.248 E.02337
G1 X114.913 Y124.756 E.02337
G1 X114.492 Y124.145 E.02337
G1 X114.313 Y123.673 E.01591
G1 X101.325 Y110.685 E.57868
G1 X100.789 Y110.685 E.01688
G1 X124.849 Y134.745 E1.07202
G1 X124.313 Y134.745 E.01688
G1 X100.253 Y110.685 E1.07202
G1 X99.717 Y110.685 E.01688
G1 X123.777 Y134.745 E1.07202
G1 X123.242 Y134.745 E.01688
G1 X109.548 Y121.051 E.61015
G1 X109.478 Y120.867 E.00621
G1 X108.933 Y120.078 E.03021
G1 X108.215 Y119.442 E.03021
G1 X107.633 Y119.136 E.02074
G1 X99.181 Y110.685 E.37655
G1 X98.646 Y110.685 E.01688
G1 X106.823 Y118.863 E.36436
G1 X106.489 Y118.78 E.01085
G1 X106.201 Y118.776 E.00907
G1 X98.11 Y110.685 E.3605
G1 X97.574 Y110.685 E.01688
G1 X105.657 Y118.768 E.36015
G1 X105.483 Y118.766 E.00548
G1 X105.191 Y118.838 E.00949
G1 X97.038 Y110.685 E.36325
G1 X96.502 Y110.685 E.01688
G1 X104.761 Y118.944 E.36797
G1 X104.546 Y118.997 E.00697
G1 X104.37 Y119.089 E.00626
G1 X95.966 Y110.685 E.37444
G1 X95.431 Y110.685 E.01688
G1 X104.019 Y119.273 E.38265
G1 X103.673 Y119.464 E.01243
G1 X94.895 Y110.685 E.39113
G1 X94.359 Y110.685 E.01688
G1 X103.389 Y119.715 E.40234
G1 X103.105 Y119.967 E.01196
G1 X93.823 Y110.685 E.41356
G1 X93.287 Y110.685 E.01688
G1 X102.858 Y120.256 E.42645
G1 X102.643 Y120.577 E.01217
G1 X92.751 Y110.685 E.44075
G1 X92.215 Y110.685 E.01688
G1 X102.429 Y120.898 E.45505
G1 X102.277 Y121.283 E.01302
G1 X91.736 Y110.742 E.46966
G1 X91.736 Y111.278 E.01688
G1 X102.13 Y121.671 E.4631
G1 X102.095 Y121.764 E.00311
G1 X102.051 Y122.128 E.01156
G1 X91.736 Y111.813 E.45957
G1 X91.736 Y112.349 E.01688
G1 X101.993 Y122.606 E.45698
G1 X101.979 Y122.715 E.00348
G1 X102.036 Y123.185 E.01491
G1 X91.736 Y112.885 E.45893
G1 X91.736 Y113.421 E.01688
G1 X102.456 Y124.141 E.47763
G1 E-3.5 F3600
;WIPE_START
G1 F7200
G1 X100.335 Y122.019 E-1.425
;WIPE_END
G1 E-.075 F3600
G1 X109.583 Y121.622 F9000
G1 E5 F2400
G1 F1200
G1 X122.706 Y134.745 E.58471
G1 X122.17 Y134.745 E.01688
G1 X109.905 Y122.48 E.54649
G1 X109.933 Y122.715 E.00746
G1 X109.898 Y123.009 E.00932
G1 X121.634 Y134.745 E.52293
G1 X121.098 Y134.745 E.01688
G1 X109.84 Y123.487 E.50164
G1 X109.818 Y123.667 E.00572
G1 X109.726 Y123.909 E.00815
G1 X120.562 Y134.745 E.48283
G1 X120.027 Y134.745 E.01688
G1 X109.579 Y124.297 E.46552
G1 X109.478 Y124.564 E.00897
G1 X109.409 Y124.663 E.00382
G1 X119.491 Y134.745 E.44921
G1 X118.955 Y134.745 E.01688
G1 X109.19 Y124.98 E.43508
G1 X108.971 Y125.298 E.01214
G1 X118.419 Y134.745 E.42096
G1 X117.883 Y134.745 E.01688
G1 X108.698 Y125.561 E.40924
G1 X108.414 Y125.812 E.01196
G1 X117.347 Y134.745 E.39802
G1 X116.812 Y134.745 E.01688
G1 X108.11 Y126.044 E.38771
G1 X107.758 Y126.228 E.0125
G1 X116.276 Y134.745 E.37949
G1 X115.74 Y134.745 E.01688
G1 X107.407 Y126.413 E.37127
G1 X106.986 Y126.528 E.01374
G1 X115.204 Y134.745 E.36615
G1 X114.668 Y134.745 E.01688
G1 X106.556 Y126.634 E.36143
G1 X106.436 Y126.663 E.00392
G1 X106.05 Y126.663 E.01214
G1 X114.132 Y134.745 E.3601
G1 X113.596 Y134.745 E.01688
G1 X105.514 Y126.663 E.3601
G1 X104.816 Y126.5 E.02261
G1 X113.061 Y134.745 E.36737
G1 X112.525 Y134.745 E.01688
G1 X91.736 Y113.957 E.92625
G1 X91.736 Y114.493 E.01688
G1 X111.989 Y134.745 E.90238
G1 X111.453 Y134.745 E.01688
G1 X91.736 Y115.028 E.8785
G1 X91.736 Y115.564 E.01688
G1 X110.917 Y134.745 E.85463
G1 X110.381 Y134.745 E.01688
G1 X91.736 Y116.1 E.83075
G1 X91.736 Y116.636 E.01688
G1 X109.846 Y134.745 E.80688
G1 X109.31 Y134.745 E.01688
G1 X91.736 Y117.172 E.783
G1 X91.736 Y117.708 E.01688
G1 X108.774 Y134.745 E.75913
G1 X108.238 Y134.745 E.01688
G1 X91.736 Y118.244 E.73525
G1 X91.736 Y118.779 E.01688
G1 X107.702 Y134.745 E.71138
G1 X107.166 Y134.745 E.01688
G1 X91.736 Y119.315 E.6875
G1 X91.736 Y119.851 E.01688
G1 X106.631 Y134.745 E.66363
G1 X106.095 Y134.745 E.01688
G1 X91.736 Y120.387 E.63975
G1 X91.736 Y120.923 E.01688
G1 X105.559 Y134.745 E.61588
G1 X105.023 Y134.745 E.01688
G1 X91.736 Y121.459 E.592
G1 X91.736 Y121.994 E.01688
G1 X104.487 Y134.745 E.56813
G1 X103.951 Y134.745 E.01688
G1 X91.736 Y122.53 E.54425
G1 X91.736 Y123.066 E.01688
G1 X103.415 Y134.745 E.52038
G1 X102.88 Y134.745 E.01688
G1 X91.736 Y123.602 E.4965
G1 X91.736 Y124.138 E.01688
G1 X102.344 Y134.745 E.47263
G1 X101.808 Y134.745 E.01688
G1 X91.736 Y124.674 E.44876
G1 X91.736 Y125.209 E.01688
G1 X101.272 Y134.745 E.42488
G1 X100.736 Y134.745 E.01688
G1 X91.736 Y125.745 E.40101
G1 X91.736 Y126.281 E.01688
G1 X100.2 Y134.745 E.37713
G1 X99.665 Y134.745 E.01688
G1 X91.736 Y126.817 E.35326
G1 X91.736 Y127.353 E.01688
G1 X99.129 Y134.745 E.32938
G1 X98.593 Y134.745 E.01688
